packages/components/src/telekom/icons/weather/thunder-rain/selected.svg

<?xml version="1.0" encoding="UTF-8"?>
<svg width="24px" height="24px" viewBox="0 0 24 24" version="1.1" xmlns="http://www.w3.org/2000/svg" xmlns:xlink="http://www.w3.org/1999/xlink">
    <title>icon/weather/thunder-rain/selected</title>
    <g id="icon/weather/thunder-rain/selected" stroke="none" stroke-width="1" fill="none" fill-rule="evenodd">
        <path d="M14.0092,18.4645 C14.1163111,18.3662778 14.279916,18.4367469 14.297392,18.567046 L14.2967,18.6185 L13.7102,22.367 C13.5817,23.1865 12.8137,23.7465 11.9942,23.6185 C10.7951107,23.4309464 10.3180476,21.9867047 11.1175813,21.1211931 L11.2117,21.0275 L14.0092,18.4645 Z M11.7737,13.5005 L8.5687,18.0005 L11.6802,18.0005 L5.3717,23.098 C5.21079091,23.228 4.99864215,23.0584132 5.05719211,22.884882 L5.0832,22.833 L7.3437,19.4955 L4.9502,19.4955 L8.2767,13.5005 L11.7737,13.5005 Z M16.8557,11.7695 C16.9471375,11.6859375 17.0856609,11.7436328 17.1041248,11.8528164 L17.1042,11.9025 L16.4522,16.0695 C16.3137,16.9575 15.4812,17.5645 14.5937,17.4255 C13.2931483,17.2222586 12.7770627,15.6537759 13.6475953,14.7168746 L13.7462,14.619 L16.8557,11.7695 Z M13.5232,0.5645 C16.7392,0.5645 19.5722,2.5685 20.6727,5.584 C22.5597,6.578 23.7617,8.555 23.7617,10.7115 C23.7617,13.8292674 21.3007817,16.3789105 18.2319138,16.4958123 L18.0117,16.5 L17.6832,16.4995 L17.7122,16.3856875 L17.7122,16.3856875 L17.7367,16.27 L18.3887,12.1035 C18.4547,11.6855 18.3347,11.2605 18.0597,10.9385 C17.7832,10.615 17.3807,10.4295 16.9557,10.4295 C16.6454143,10.4295 16.346149,10.5286837 16.0982073,10.7116224 L15.9787,10.81 L14.4612,12.2005 L7.5112,12.2005 L5.1392,16.476 C2.4182,16.2815 0.2617,14.002 0.2617,11.2155 C0.2617,9.3035 1.2937,7.5495 2.9287,6.6175 C3.0682,4.128 5.1252,2.146 7.6332,2.146 C8.0022,2.146 8.3702,2.191 8.7332,2.2795 C10.0902,1.1705 11.7752,0.5645 13.5232,0.5645 Z" id="Shape" fill="#262626"></path>
    </g>
</svg>

<svg width="24" height="24" xmlns="http://www.w3.org/2000/svg"><path d="M14.01 18.465a.173.173 0 01.287.102v.052l-.587 3.748a1.502 1.502 0 01-1.716 1.252c-1.199-.188-1.676-1.632-.876-2.498l.094-.093 2.797-2.563zM11.773 13.5L8.569 18h3.111l-6.308 5.097c-.161.13-.373-.04-.315-.213l.026-.052 2.26-3.337H4.95L8.277 13.5h3.497zm5.082-1.731a.15.15 0 01.248.083v.05l-.652 4.167a1.626 1.626 0 01-1.858 1.355c-1.3-.203-1.817-1.771-.946-2.708l.098-.098 3.11-2.85zM13.523.565a7.596 7.596 0 017.15 5.019 5.805 5.805 0 013.089 5.127c0 3.118-2.461 5.668-5.53 5.785l-.22.004h-.329l.03-.114.024-.116.652-4.166a1.45 1.45 0 00-2.29-1.392l-.12.098-1.518 1.39h-6.95L5.14 16.477a5.27 5.27 0 01-4.877-5.26 5.299 5.299 0 012.667-4.598c.14-2.49 2.196-4.472 4.704-4.472.37 0 .737.045 1.1.134a7.558 7.558 0 014.79-1.715z" fill="#000" fill-rule="evenodd"/></svg>
